X: 30751
T: MISS WILLIAMS' HORNPIPE
C:
%R: hornpipe, reel
B: Elias Howe "The Musician's Companion" Part 3 1844 p.75 #1
S: http://imslp.org/wiki/The_Musician's_Companion_(Howe,_Elias)
Z: 2015 John Chambers <jc:trillian.mit.edu>
M: 2/4
L: 1/16
K: D
% - - - - - - - - - - - - - - - - - - - - - - - - -
A2 |\
dfAd BABc | dfAd BABc | dcde fdgf | edcB A2Bc |\
dfAd BABc | dfAd BABc | d2a2 afec | d2f2d2 :|
|: cd |\
e3f edcd | edcB A2cd | e3f edcd | e2B2 B2cd |\
e3f edcd | edcB A2fg | a3b agfe | d2f2d2 :|
% - - - - - - - - - - - - - - - - - - - - - - - - -
